packages/kaspersky-hexa-ui-icons/src/iconsSVGs/16/SafetyVerdictHigh.svg

<svg width="16" height="16" viewBox="0 0 16 16" fill="none" xmlns="http://www.w3.org/2000/svg">
<path d="M7.83872 2.31616C7.93982 2.26369 8.06012 2.26369 8.16122 2.31616L12.4207 4.52718V5.20145C12.4471 5.20056 12.4735 5.20011 12.5 5.20011H13.5C13.5745 5.20011 13.6481 5.20365 13.7207 5.21057V4.13223C13.7207 3.88957 13.5856 3.66711 13.3702 3.55532L8.76014 1.16234C8.28355 0.91496 7.71639 0.914961 7.23981 1.16234L2.62973 3.55532C2.41436 3.66711 2.27919 3.88957 2.27919 4.13223V5.21057C2.35186 5.20365 2.42551 5.20011 2.5 5.20011H3.5C3.5265 5.20011 3.5529 5.20056 3.57919 5.20145V4.52718L7.83872 2.31616Z" fill="black"/>
<path d="M2.96256 10.8001H3.5C3.79904 10.8001 4.08475 10.743 4.34683 10.6392C5.02949 11.8457 5.89592 12.6258 6.63288 13.1183C7.07306 13.4125 7.46688 13.6038 7.74633 13.7203C7.8414 13.76 7.92294 13.7908 7.9882 13.814C8.05374 13.7884 8.13568 13.7545 8.23125 13.7116C8.5102 13.5862 8.90286 13.3842 9.34215 13.0831C10.0798 12.5775 10.944 11.796 11.6278 10.629C11.8968 10.7393 12.1913 10.8001 12.5 10.8001H13.0149C12.1851 12.4346 11.0389 13.4961 10.0771 14.1554C9.56429 14.5069 9.10211 14.7454 8.76426 14.8973C8.59515 14.9733 8.45658 15.0279 8.3576 15.0643C8.30809 15.0825 8.26841 15.0962 8.2397 15.1058C8.19842 15.119 8.15664 15.1324 8.11385 15.14C8.07622 15.1467 8.0381 15.15 7.99997 15.15C7.94488 15.15 7.88976 15.143 7.83607 15.1291L7.83377 15.1285L7.82971 15.1274L7.81825 15.1243C7.80914 15.1218 7.79711 15.1184 7.78231 15.1141C7.75272 15.1054 7.712 15.0929 7.66131 15.0762C7.55997 15.0428 7.41847 14.9921 7.24606 14.9202C6.90162 14.7766 6.4313 14.5472 5.91053 14.1992C4.93805 13.5492 3.78896 12.4845 2.96256 10.8001Z" fill="black"/>
<path d="M1.5 7.50011C1.5 6.94783 1.94772 6.50011 2.5 6.50011H3.5C4.05228 6.50011 4.5 6.94783 4.5 7.50011V8.50011C4.5 9.0524 4.05228 9.50011 3.5 9.50011H2.5C1.94772 9.50011 1.5 9.0524 1.5 8.50011V7.50011Z" fill="black"/>
<path d="M6.5 7.50011C6.5 6.94783 6.94772 6.50011 7.5 6.50011H8.5C9.05228 6.50011 9.5 6.94783 9.5 7.50011V8.50011C9.5 9.0524 9.05228 9.50011 8.5 9.50011H7.5C6.94772 9.50011 6.5 9.0524 6.5 8.50011V7.50011Z" fill="black"/>
<path d="M11.5 7.50011C11.5 6.94783 11.9477 6.50011 12.5 6.50011H13.5C14.0523 6.50011 14.5 6.94783 14.5 7.50011V8.50011C14.5 9.0524 14.0523 9.50011 13.5 9.50011H12.5C11.9477 9.50011 11.5 9.0524 11.5 8.50011V7.50011Z" fill="black"/>
</svg>

<svg xmlns="http://www.w3.org/2000/svg" width="16" height="16" fill="none" viewBox="0 0 16 16"><path fill="#000" fill-rule="evenodd" d="M7.8387 2.316a.35.35 0 0 1 .3225 0l4.2596 2.211v.6743A2 2 0 0 1 12.5 5.2h1q.1118 0 .2208.0104V4.1321a.65.65 0 0 0-.3506-.577l-4.61-2.3929a1.65 1.65 0 0 0-1.5204 0l-4.61 2.393a.65.65 0 0 0-.3506.5769v1.0783A2.3 2.3 0 0 1 2.5 5.2h1q.0397 0 .0792.0013v-.6742zM11.5 7.5c0-.5523.4477-1 1-1h1c.5523 0 1 .4477 1 1v1c0 .5523-.4477 1-1 1h-1c-.5523 0-1-.4477-1-1zm-9-1c-.5523 0-1 .4477-1 1v1c0 .5523.4477 1 1 1h1c.5523 0 1-.4477 1-1v-1c0-.5523-.4477-1-1-1zm5 0c-.5523 0-1 .4477-1 1v1c0 .5523.4477 1 1 1h1c.5523 0 1-.4477 1-1v-1c0-.5523-.4477-1-1-1zm-4.5374 4.3H3.5c.299 0 .5847-.0571.8468-.1609.6827 1.2065 1.5491 1.9866 2.286 2.4791.4403.2942.834.4855 1.1135.602.0951.0396.1766.0705.2419.0937a5 5 0 0 0 .243-.1025c.279-.1254.6717-.3273 1.111-.6284a7.665 7.665 0 0 0 2.2856-2.4541c.269.1103.5635.1711.8722.1711h.5149c-.8298 1.6344-1.976 2.696-2.9378 3.3553-.5128.3515-.975.59-1.3128.7418a6.3 6.3 0 0 1-.4067.1671 4 4 0 0 1-.1179.0414c-.0413.0133-.083.0267-.1259.0343a.65.65 0 0 1-.2777-.0109l-.0023-.0006-.004-.0011-.0116-.0031-.0359-.0103a4 4 0 0 1-.121-.0378 6 6 0 0 1-.4152-.156c-.3445-.1436-.8148-.373-1.3356-.7211-.9725-.6499-2.1215-1.7146-2.948-3.399"/></svg>
